images_files/dinosaursVG/pteranodon.svg

<svg width="705" height="364" viewBox="0 0 705 364" fill="none" xmlns="http://www.w3.org/2000/svg">
<g filter="url(#filter0_d_554_118)">
<path d="M458.409 277.176L449.367 241.912C449.367 241.912 472.296 180.441 479.723 170.088C487.151 159.735 528.81 111.206 541.082 100.206C553.354 89.2059 598.242 57.1765 618.588 46.5L699 8L640.871 8.97059L568.209 19.6471L488.765 44.2353L453.242 60.7353L421.271 118.647L391.56 145.5L340.213 159.735L260.446 177.529L205.869 186.265L148.709 158.765L5 209.882L87.9958 215.706C87.9958 215.706 138.698 217.324 164.856 224.118C191.014 230.912 286.927 254.853 286.927 254.853L376.705 283L458.409 277.176Z" fill="#9BB9BB"/>
</g>
<g filter="url(#filter1_d_554_118)">
<path d="M388.48 27.3453C385.574 22.1724 139.908 125.307 139.908 131.773C139.908 138.239 239.014 127.894 244.824 131.773C250.635 135.653 254.186 153.435 250.635 156.021C247.084 158.608 210.605 169.6 203.826 170.247C197.047 170.893 139.908 148.585 139.908 148.585C126.995 148.585 4 210.013 4 210.013C4 210.013 146.364 162.811 149.915 162.811C153.466 162.811 198.661 188.352 203.826 189.645C208.991 190.938 263.225 180.592 263.225 180.592C263.225 180.592 267.422 202.578 282.594 221.006C297.767 239.434 335.537 260.449 335.537 260.449L380.086 285.667L423.022 340.306C423.022 340.306 429.155 354.855 433.029 354.531C436.903 354.208 432.383 321.878 448.847 347.095C465.311 372.313 451.107 336.426 448.847 331.9C446.588 327.374 433.029 326.727 433.029 326.727L423.022 314.118V293.103L457.241 300.862L475.641 319.291C475.641 319.291 479.192 331.9 483.389 331.9C487.586 331.9 487.909 298.923 501.79 326.727C515.671 354.531 505.018 311.855 501.79 308.298C498.562 304.742 487.586 306.682 487.586 306.682L433.029 253.66L388.48 215.833C377.504 205.487 341.025 162.811 341.025 162.811C341.025 162.811 390.094 150.525 392.999 148.585C392.999 148.585 420.439 124.66 423.022 120.781C425.604 116.901 450.139 66.142 454.981 62.5856C454.981 62.5856 484.358 48.0369 487.586 46.7436C490.814 45.4504 565.386 22.1726 568.291 21.5257C568.291 21.5257 644.154 10.5336 648.673 10.5333C653.193 10.533 700.325 10.5333 700.97 8.59348C701.616 6.65365 691.609 1.48074 678.696 0.187518C665.783 -1.10571 607.03 4.71381 607.03 4.71381C595.085 6.33034 563.126 13.4431 555.378 15.7062C547.63 17.9694 480.484 39.6309 480.484 39.6309L452.075 43.1873C444.005 46.7436 401.393 118.194 395.905 123.367C390.417 128.54 314.231 145.999 307.775 145.352C301.318 144.705 287.76 138.239 287.76 138.239C287.76 138.239 282.594 133.713 282.594 125.954C282.594 118.194 287.76 91.6832 287.76 91.6832C287.76 91.6832 391.385 32.5182 388.48 27.3453Z" fill="#32999F"/>
</g>
<defs>
<filter id="filter0_d_554_118" x="1" y="8" width="702" height="283" filterUnits="userSpaceOnUse" color-interpolation-filters="sRGB">
<feFlood flood-opacity="0" result="BackgroundImageFix"/>
<feColorMatrix in="SourceAlpha" type="matrix" values="0 0 0 0 0 0 0 0 0 0 0 0 0 0 0 0 0 0 127 0" result="hardAlpha"/>
<feOffset dy="4"/>
<feGaussianBlur stdDeviation="2"/>
<feComposite in2="hardAlpha" operator="out"/>
<feColorMatrix type="matrix" values="0 0 0 0 0 0 0 0 0 0 0 0 0 0 0 0 0 0 0.25 0"/>
<feBlend mode="normal" in2="BackgroundImageFix" result="effect1_dropShadow_554_118"/>
<feBlend mode="normal" in="SourceGraphic" in2="effect1_dropShadow_554_118" result="shape"/>
</filter>
<filter id="filter1_d_554_118" x="0" y="0" width="705" height="364" filterUnits="userSpaceOnUse" color-interpolation-filters="sRGB">
<feFlood flood-opacity="0" result="BackgroundImageFix"/>
<feColorMatrix in="SourceAlpha" type="matrix" values="0 0 0 0 0 0 0 0 0 0 0 0 0 0 0 0 0 0 127 0" result="hardAlpha"/>
<feOffset dy="4"/>
<feGaussianBlur stdDeviation="2"/>
<feComposite in2="hardAlpha" operator="out"/>
<feColorMatrix type="matrix" values="0 0 0 0 0 0 0 0 0 0 0 0 0 0 0 0 0 0 0.25 0"/>
<feBlend mode="normal" in2="BackgroundImageFix" result="effect1_dropShadow_554_118"/>
<feBlend mode="normal" in="SourceGraphic" in2="effect1_dropShadow_554_118" result="shape"/>
</filter>
</defs>
</svg>

<svg xmlns="http://www.w3.org/2000/svg" width="705" height="364" fill="none" xmlns:v="https://vecta.io/nano"><g filter="url(#A)"><path d="M458.409 277.176l-9.042-35.264s22.929-61.471 30.356-71.824 49.087-58.882 61.359-69.882 57.16-43.03 77.506-53.706L699 8l-58.129.971-72.662 10.677-79.444 24.588-35.523 16.5-31.971 57.912L391.56 145.5l-51.347 14.235-79.767 17.794-54.577 8.736-57.16-27.5L5 209.882l82.996 5.824s50.702 1.618 76.86 8.412l122.071 30.735L376.705 283l81.704-5.824z" fill="#9bb9bb"/></g><g filter="url(#B)"><path d="M388.48 27.345c-2.906-5.173-248.572 97.962-248.572 104.428s99.106-3.879 104.916 0 9.362 21.662 5.811 24.248-40.03 13.579-46.809 14.226-63.918-21.662-63.918-21.662C126.995 148.585 4 210.013 4 210.013l145.915-47.202c3.551 0 48.746 25.541 53.911 26.834s59.399-9.053 59.399-9.053 4.197 21.986 19.369 40.414 52.943 39.443 52.943 39.443l44.549 25.218 42.936 54.639s6.133 14.549 10.007 14.225-.646-32.653 15.818-7.436 2.26-10.669 0-15.195-15.818-5.173-15.818-5.173l-10.007-12.609v-21.015l34.219 7.759 18.4 18.429s3.551 12.609 7.748 12.609 4.52-32.977 18.401-5.173 3.228-14.872 0-18.429-14.204-1.616-14.204-1.616l-54.557-53.022-44.549-37.827c-10.976-10.346-47.455-53.022-47.455-53.022s49.069-12.286 51.974-14.226c0 0 27.44-23.925 30.023-27.804s27.117-54.639 31.959-58.195l32.605-15.842c3.228-1.293 77.8-24.571 80.705-25.218l80.382-10.992c4.52 0 51.652 0 52.297-1.94s-9.361-7.113-22.274-8.406-71.666 4.526-71.666 4.526c-11.945 1.617-43.904 8.729-51.652 10.992s-74.894 23.925-74.894 23.925l-28.409 3.556c-8.07 3.556-50.682 75.007-56.17 80.18s-81.674 22.632-88.13 21.985-20.015-7.113-20.015-7.113-5.166-4.526-5.166-12.285 5.166-34.271 5.166-34.271 103.625-59.165 100.72-64.338z" fill="#32999f"/></g><defs><filter id="A" x="1" y="8" width="702" height="283" filterUnits="userSpaceOnUse" color-interpolation-filters="sRGB"><feFlood flood-opacity="0" result="A"/><feColorMatrix in="SourceAlpha" values="0 0 0 0 0 0 0 0 0 0 0 0 0 0 0 0 0 0 127 0" result="B"/><feOffset dy="4"/><feGaussianBlur stdDeviation="2"/><feComposite in2="B" operator="out"/><feColorMatrix values="0 0 0 0 0 0 0 0 0 0 0 0 0 0 0 0 0 0 0.25 0"/><feBlend in2="A"/><feBlend in="SourceGraphic"/></filter><filter id="B" x="0" y="0" width="705" height="364" filterUnits="userSpaceOnUse" color-interpolation-filters="sRGB"><feFlood flood-opacity="0" result="A"/><feColorMatrix in="SourceAlpha" values="0 0 0 0 0 0 0 0 0 0 0 0 0 0 0 0 0 0 127 0" result="B"/><feOffset dy="4"/><feGaussianBlur stdDeviation="2"/><feComposite in2="B" operator="out"/><feColorMatrix values="0 0 0 0 0 0 0 0 0 0 0 0 0 0 0 0 0 0 0.25 0"/><feBlend in2="A"/><feBlend in="SourceGraphic"/></filter></defs></svg>
